**kern	**kern
*staff2	*staff1
*clefG2	*clefG2
*k[b-e-a-]	*k[b-e-a-]
*M3/4	*M3/4
*c:	*c:
=-	=-
4r	4g
=134	=134
2.c 2.e-	(4g
.	4ee-
.	4cc)
=135	=135
2.c 2.f 2.a-	(4cc
.	4ff
.	4ee-
=136	=136
2.c 2.d 2.f 2.a-	4dd
.	4cc
.	4b)
=137	=137
2c 2e- 2g	(4dd
.	4cc)
4e- 4g	4cc
=138	=138
(2f 2a-	(2cc 2dd
4g 4b-	4cc 4ee
=139	=139
2a-	2cc 2ff
4e) 4g	4cc) 4gg
=140	=140
4f 4a-	(8ccL 8bb-
.	8aa-J
4r	8ggL
.	8ffJ
*^	*
4F	4f	8ee-L
.	.	8ddJ)
=141	=141	=141
(4e-	4.G	(4cc
8d)	.	8b)
8r	8r	8r
*v	*v	*
=	=
*-	*-
